build/cards/PaymentsMasterRUB.svg

<svg xmlns="http://www.w3.org/2000/svg" fill="none" viewBox="0 0 40 40" focusable="false"><path fill="none" d="M0 0H40V40H0z"/><rect width="38" height="28" x="1" y="6" fill="#37383B" rx="4"/><path fill="#FFF" fill-rule="evenodd" d="M16.0335 13.8675C16.0335 13.3884 16.4219 13 16.901 13L21.3421 13C23.7907 13 25.7757 14.985 25.7757 17.4336C25.7757 19.8822 23.7907 21.8672 21.3421 21.8672L17.7684 21.8672L17.7684 23.2662L21.7985 23.2662C22.2776 23.2662 22.666 23.6546 22.666 24.1337C22.666 24.6128 22.2776 25.0011 21.7985 25.0011L17.7684 25.0011L17.7684 26.1325C17.7684 26.6116 17.3801 27 16.901 27C16.4219 27 16.0335 26.6116 16.0335 26.1325L16.0335 25.0011L15.0974 25.0011C14.6184 25.0011 14.23 24.6128 14.23 24.1337C14.23 23.6546 14.6184 23.2662 15.0974 23.2662L16.0335 23.2662L16.0335 21.8672L15.1053 21.8672C14.6262 21.8672 14.2378 21.4788 14.2378 20.9997C14.2378 20.5206 14.6262 20.1322 15.1053 20.1322L16.0335 20.1322L16.0335 13.8675ZM17.7684 20.1322L21.3421 20.1322C22.8326 20.1322 24.0408 18.924 24.0408 17.4336C24.0408 15.9431 22.8326 14.7349 21.3421 14.7349L17.7684 14.7349L17.7684 20.1322Z"/></svg>

<svg xmlns="http://www.w3.org/2000/svg" fill="none" viewBox="0 0 40 40" focusable="false"><path fill="none" d="M0 0h40v40H0z"/><rect width="38" height="28" x="1" y="6" fill="#35383F" rx="4"/><path fill="#FFF" fill-rule="evenodd" d="M16.03 13.86c0-.48.39-.86.87-.86h4.44c2.45 0 4.43 1.98 4.43 4.43s-1.98 4.43-4.43 4.43h-3.58v1.4h4.03a.87.87 0 0 1 0 1.74h-4.03v1.13c0 .48-.39.87-.86.87a.87.87 0 0 1-.87-.87V25h-.94c-.48 0-.86-.39-.86-.87s.38-.87.86-.87h.94v-1.4h-.93a.87.87 0 0 1-.87-.87c0-.47.39-.86.87-.86h.93zm1.73 6.27h3.58c1.49 0 2.7-1.21 2.7-2.7s-1.21-2.7-2.7-2.7h-3.58z"/></svg>
